X:1
T: Jubilee Jig
C:
R:Jig
Q:180
K:D
M:6/8
L:1/16
A,2|D6 D4F2|B2A2F2 D6|C2D2E2 E2F2D2|C2B,2C2 A,2B,2C2|D6 D4B2|A2B2c2 d4A2|Bcd2B2 cde2c2|d6 D4A,2|
D6 D4F2|B2A2F2 D6|C2D2E2 E2F2D2|C2B,2C2 A,2B,2C2|D6 D4B2|A2B2c2 d4A2|Bcd2B2 cde2c2|d6 D4e2|
f2d2A2 g2e2c2|f4d2 A4A2|B2c2d2 e2f2d2|c6A6|f2d2A2 g2e2c2|f2d2A2 F2D2A,2|B,4D2 CDE2C2|D6D4e2|
f2d2A2 g2e2c2|f4d2 A4A2|B2c2d2 e2f2d2|c6 A4A2|B2G2d2 A2F2d2|A2F2D2 A,6|B,4D2 CDE2C2|D6D4||
